X:125
T:Happy Kwahanumas 
R:reel
C: 2005, 2010 L.E. McCullough 
M:4/4
L:1/8
K:D
DE|:~F3A AFED|~E3F D2FA|B~A3 dABA|(3FGA FD E2DE|
~F3A AFED|~E3F D2FA|~B3A (3Bcd BA|1 BAFE D2DE:|2 BAFE D2de|]
|:~f3e edBA|d~F3 A2de|~f3a bafa|b~f3 e2de|
f~d3 e~B3|gfed B2AG|F~A3 (3Bcd fd|1 ~e3c d2de:|2 ~e3c d2DE|]

